X:23
T:Spa Dance THO3.023, The
O:England;London
M:2/4
L:1/8
Z:vmp. Peter Dunk 2011.from a transcription by Fynn Titford-Mock 2006-9
B:Thompson's Compleat Collection of 200 Favourite Country Dances Vol. III.1765-72
Q:1/4=140
K:D
Dd/c/ dd|fd f2|af a/g/f/e/|d/c/d/e/ dd|Dd/c/ dd|fd f2|agfe|d2d2|
[ge][ge][fd][fd]|[ge][ge] [f2d2]|[ge][ge][fd][fd]|\
[ge][ge] [f2d2]|Dd/c/ dd|fd f2|af a/g/f/e/|d2D2|
G>ABB|Bd d2|Bd e/d/=c/B/|A/G/A/B/ AA|G>ABB|Bd d2|Bd e/d/=c/B/|B2A2|
AB=cc|BdgB|A>B=cc|Bd/e/ d/=c/B/A/|G>ABB|Bdgd|dB d/=c/B/A/| G4|]

